X: 192
T: the Petticoat ?? white
N: There's an illegible squiggle between "Petticoat" and "white", which are also in two different fonts.
%R: hornpipe
M: 2/4
L: 1/8
Z: 2014 John Chambers <jc:trillian.mit.edu>
B: Chas & Sam Thompson "Twenty Four Country Dances for the Year 1772", London 1772, p.96
F: http://folkopedia.efdss.org/images/8/89/Thompson_24_1772.PDF
N: The 2nd strain has initial repeat but no final repeat; fixed to agree with the dance phrasing.
K: G
|:\
d>BB>B | g3d | B>GG>B | TA4 |\
d>BB>B | Tg3e | d>BA>G | G4 :|
|:\
A>FE>D | c>cc>c | B>Gd>B | Tg4 |\
c>eg>c | B>dg2 | e>cB>A | G4 :|
% - - - - - - - - - - - - - - - - - - - - - - - - -
%%begintext align
%% The first and second Man Lead thro' the first and
%% 2d Women .|. Lead thro' and cast back and turn :|.
%% cross over two Cu: .|: lead up and turn :|:
%%endtext
% - - - - - - - - - - - - - - - - - - - - - - - - -
